img/svg/16/net/ibmwebexplorer.svg

<svg xmlns="http://www.w3.org/2000/svg" viewBox="0 0 16 16" enable-background="new 0 0 16 16"><g fill-rule="evenodd" clip-rule="evenodd" fill="#ccc"><path d="M12.282 1.128h-8.564c-1.499 0-2.718 1.243-2.718 2.771v5.175c0 1.527 1.219 2.77 2.718 2.77h8.565c1.499 0 2.718-1.243 2.718-2.77v-5.175c-.001-1.528-1.22-2.771-2.719-2.771zm.841 6.872h-3.123v2.044h-5.67c-.429 0-.785-.073-1.031-.21-.288-.161-.422-.403-.422-.76v-.074h2.123v-2h-2.123v-3.101c0-.303.144-.545.43-.718.266-.162.638-.254 1.023-.254h7.341c.368 0 .749.102 1.019.271.287.182.433.416.433.701v4.101zM13.474 13.051h-10.948c-.348 0-.631.289-.631.644v.533c0 .354.283.644.631.644h10.948c.348 0 .631-.289.631-.644v-.533c0-.355-.283-.644-.631-.644zM5 4h2v2h-2z"/></g></svg>

<svg xmlns="http://www.w3.org/2000/svg" viewBox="0 0 16 16"><path fill="#ccc" fill-rule="evenodd" d="M12.282 1.128H3.718C2.219 1.128 1 2.371 1 3.899v5.175c0 1.527 1.219 2.77 2.718 2.77h8.565c1.499 0 2.718-1.243 2.718-2.77V3.899c-.001-1.528-1.22-2.771-2.719-2.771zM13.123 8H10v2.044H4.33c-.429 0-.785-.073-1.031-.21-.288-.161-.422-.403-.422-.76V9H5V7H2.877V3.899c0-.303.144-.545.43-.718.266-.162.638-.254 1.023-.254h7.341c.368 0 .749.102 1.019.271.287.182.433.416.433.701V8zm.351 5.051H2.526a.638.638 0 0 0-.631.644v.533c0 .354.283.644.631.644h10.948a.638.638 0 0 0 .631-.644v-.533a.638.638 0 0 0-.631-.644zM5 4h2v2H5z" clip-rule="evenodd"/></svg>
